brandFactory_export/2.Regular/Archivos digitales_2Regular.svg

<?xml version="1.0" encoding="UTF-8"?>
<svg width="24px" height="24px" viewBox="0 0 24 24" version="1.1" xmlns="http://www.w3.org/2000/svg" xmlns:xlink="http://www.w3.org/1999/xlink">
    <title>2.Regular/Archivos digitales_2Regular</title>
    <g id="Symbols" stroke="none" stroke-width="1" fill="none" fill-rule="evenodd">
        <g id="2.Regular/Archivos-digitales_2Regular" fill="#5CB615" fill-rule="nonzero">
            <path d="M11.4016807,10.887395 C11.3546218,10.7495798 11.287395,10.6117647 11.1798319,10.5142857 L7.33109244,6.69915966 C7.16638655,6.53109244 6.92773109,6.43361345 6.69579832,6.43361345 L4.27226891,6.43361345 L4.27226891,5.57647059 C4.27226891,4.85714286 4.42689076,4.32605042 4.73277311,4.01008403 C5.0487395,3.67394958 5.58991597,3.50588235 6.31932773,3.50588235 L20.0605042,3.49579832 C20.8,3.49579832 21.3310924,3.66386555 21.6470588,4 C21.9563025,4.31596639 22.107563,4.84705882 22.107563,5.56638655 L22.107563,12.1815126 C22.107563,12.9109244 21.9529412,13.4453782 21.6470588,13.7680672 C21.3210084,14.1142857 20.789916,14.2823529 20.0605042,14.2823529 L11.4588235,14.292437 L11.4588235,11.1865546 C11.4621849,11.0756303 11.4420168,10.9781513 11.4016807,10.887395 L11.4016807,10.887395 Z M7.21680672,9.27058824 L7.21680672,8.63865546 L9.23697479,10.6319328 L8.62184874,10.6319328 C8.31596639,10.6319328 7.89915966,10.5747899 7.58319328,10.2655462 C7.34117647,10.0201681 7.21680672,9.68403361 7.21680672,9.27058824 Z M10.0168067,20.1647059 L1.44201681,20.1647059 L1.44201681,7.9092437 L5.77142857,7.9092437 L5.77142857,9.27058824 C5.77142857,10.087395 6.05042017,10.8 6.57815126,11.3210084 C7.09915966,11.8420168 7.80168067,12.1109244 8.61848739,12.1109244 L10.0134454,12.1109244 L10.0134454,20.1647059 L10.0168067,20.1647059 Z M20.0638655,15.7579832 C21.2,15.7579832 22.0840336,15.4319328 22.6823529,14.7932773 C23.2705882,14.1815126 23.5596639,13.3042017 23.5596639,12.1815126 L23.5596639,5.56302521 C23.5596639,4.43697479 23.2705882,3.5697479 22.6823529,2.95798319 C22.087395,2.32605042 21.2,2.01008403 20.0638655,2.01008403 L6.32268908,2.02016807 C5.18655462,2.02016807 4.30252101,2.33613445 3.70420168,2.96470588 C3.12605042,3.56638655 2.82689076,4.44369748 2.82689076,5.56638655 L2.82689076,6.42352941 L1.29747899,6.42352941 C0.605042017,6.42352941 0,7.03529412 0,7.74453782 L0,20.3260504 C0,21.0352941 0.594957983,21.6369748 1.29747899,21.6369748 L10.1613445,21.6369748 C10.8638655,21.6369748 11.4588235,21.0352941 11.4588235,20.3260504 L11.4588235,18.1848739 L22.8336134,18.1848739 C23.2369748,18.1848739 23.5563025,17.8588235 23.5563025,17.4453782 C23.5563025,17.0420168 23.2403361,16.7058824 22.8336134,16.7058824 L11.4621849,16.7058824 L11.4621849,15.7579832 L20.0638655,15.7579832 Z" id="Archivos-digitales_2Regular"></path>
        </g>
    </g>
</svg>

<svg width="24" height="24" viewBox="0 0 24 24" xmlns="http://www.w3.org/2000/svg"><path d="M11.402 10.887a.878.878 0 00-.222-.373L7.33 6.7a.907.907 0 00-.635-.265H4.272v-.858c0-.719.155-1.25.46-1.566.317-.336.858-.504 1.587-.504l13.742-.01c.739 0 1.27.168 1.586.504.31.316.46.847.46 1.566v6.616c0 .729-.154 1.263-.46 1.586-.326.346-.857.514-1.586.514l-8.602.01v-3.105a.67.67 0 00-.057-.3zM7.217 9.271v-.632l2.02 1.993h-.615c-.306 0-.723-.057-1.039-.366-.242-.246-.366-.582-.366-.995zm2.8 10.894H1.442V7.909h4.33v1.362c0 .816.278 1.529.806 2.05.521.521 1.224.79 2.04.79h1.395v8.054h.004zm10.047-4.407c1.136 0 2.02-.326 2.618-.965.589-.611.878-1.489.878-2.611V5.563c0-1.126-.29-1.993-.878-2.605-.595-.632-1.482-.948-2.618-.948l-13.741.01c-1.136 0-2.02.316-2.619.945-.578.601-.877 1.479-.877 2.601v.858h-1.53C.605 6.424 0 7.035 0 7.744v12.582c0 .71.595 1.311 1.297 1.311h8.864c.703 0 1.298-.602 1.298-1.31v-2.142h11.375a.725.725 0 00.722-.74.73.73 0 00-.722-.74H11.462v-.947h8.602z" fill="#5CB615" fill-rule="nonzero"/></svg>
